src/cmd/32/sbaexecutesql.svg

<svg viewBox="0 0 32 32" xmlns="http://www.w3.org/2000/svg"><path d="m16 4c-6.627417 0-12 1.3431458-12 3v6 6 6c0 1.656854 5.372583 3 12 3 .334058-.0017.667682-.006895 1-.015625v-.994141c-.332345.006-.666024.009266-1 .009766-6.0751322-.000029-11-.895431-11-2v-4.804688c1.9031699 1.095266 6.223414 1.804056 11 1.804688.334058-.0017.667682-.006895 1-.015625v-.994141c-.332345.006-.666024.009266-1 .009766-6.0751322-.000029-11-.895431-11-2v-4.804688c1.9031699 1.095267 6.223414 1.804056 11 1.804688 4.780309-.0013 9.101572-.711799 11-1.808594v5.808594h1v-13c0-1.6568542-5.372583-3-12-3zm0 1c6.075132 0 11 .8954305 11 2s-4.924868 2-11 2c-6.0751322 0-11-.8954305-11-2s4.9248678-2 11-2zm11 3.1914062v4.8085938c0 1.104569-4.924868 2-11 2-6.0751322 0-11-.895431-11-2v-4.8046875c1.9031705 1.095266 6.223414 1.8040559 11 1.8046875 4.780309-.001307 9.101572-.7117987 11-1.8085938zm-5 11.8085938v3h-5v2h5v3l6-4z" fill="#232629"/></svg>

<?xml version="1.0" encoding="UTF-8" standalone="no"?>
<svg
   xmlns:dc="http://purl.org/dc/elements/1.1/"
   xmlns:cc="http://creativecommons.org/ns#"
   xmlns:rdf="http://www.w3.org/1999/02/22-rdf-syntax-ns#"
   xmlns:svg="http://www.w3.org/2000/svg"
   xmlns="http://www.w3.org/2000/svg"
   xmlns:sodipodi="http://sodipodi.sourceforge.net/DTD/sodipodi-0.dtd"
   xmlns:inkscape="http://www.inkscape.org/namespaces/inkscape"
   viewBox="0 0 32 32"
   version="1.1"
   id="svg4"
   sodipodi:docname="sbaexecutesql.svg"
   inkscape:version="0.92.5 (2060ec1f9f, 2020-04-08)"
   inkscape:export-filename="/home/jupiter007/Libreoffice yaru theme fullcolor/build/cmd/32/sbaexecutesql.png"
   inkscape:export-xdpi="96"
   inkscape:export-ydpi="96">
  <metadata
     id="metadata10">
    <rdf:RDF>
      <cc:Work
         rdf:about="">
        <dc:format>image/svg+xml</dc:format>
        <dc:type
           rdf:resource="http://purl.org/dc/dcmitype/StillImage" />
      </cc:Work>
    </rdf:RDF>
  </metadata>
  <defs
     id="defs8" />
  <sodipodi:namedview
     pagecolor="#ffffff"
     bordercolor="#666666"
     borderopacity="1"
     objecttolerance="10"
     gridtolerance="10"
     guidetolerance="10"
     inkscape:pageopacity="0"
     inkscape:pageshadow="2"
     inkscape:window-width="1920"
     inkscape:window-height="1011"
     id="namedview6"
     showgrid="true"
     inkscape:zoom="20.85965"
     inkscape:cx="18.401486"
     inkscape:cy="10.144574"
     inkscape:window-x="0"
     inkscape:window-y="32"
     inkscape:window-maximized="1"
     inkscape:current-layer="svg4">
    <inkscape:grid
       type="xygrid"
       id="grid825" />
  </sodipodi:namedview>
  <path
     style="fill:#f2cbf8;fill-opacity:1;stroke-width:0.95833331"
     id="path817"
     d="M 16,4.5 C 9.648725,4.5 4.5,5.7871814 4.5,7.375 v 5.75 5.75 5.75 c 0,1.587818 5.148725,2.875 11.5,2.875 6.351275,0 11.5,-1.287182 11.5,-2.875 V 7.375 C 27.5,5.7871814 22.351275,4.5 16,4.5 Z"
     inkscape:connector-curvature="0"
     sodipodi:nodetypes="ssccsssss" />
  <path
     inkscape:connector-curvature="0"
     d="M 16,4 A 12,3 0 0 0 4,7 v 6 6 6 a 12,3 0 0 0 12,3 12,3 0 0 0 12,-3 V 7 A 12,3 0 0 0 16,4 Z m 0,1 A 11,2 0 0 1 27,7 11,2 0 0 1 16,8.9999999 11,2 0 0 1 5,7 11,2 0 0 1 16,5 Z M 27,8.1914059 V 13 A 11,2 0 0 1 16,15 11,2 0 0 1 5,13 V 8.1953129 a 12,3 0 0 0 11,1.804687 12,3 0 0 0 11,-1.808594 z m 0,6.0000001 V 19 A 11,2 0 0 1 16,21 11,2 0 0 1 5,19 V 14.195312 A 12,3 0 0 0 16,16 12,3 0 0 0 27,14.191406 Z m 0,6 V 25 A 11,2 0 0 1 16,27 11,2 0 0 1 5,25 V 20.195312 A 12,3 0 0 0 16,22 12,3 0 0 0 27,20.191406 Z"
     id="path2"
     style="fill:#8e03a3;fill-opacity:1" />
  <path
     sodipodi:nodetypes="cccccccc"
     style="opacity:0.6;fill:#000000;fill-opacity:1;stroke:#000000;stroke-width:2;stroke-linecap:butt;stroke-linejoin:round;stroke-miterlimit:4;stroke-dasharray:none;stroke-opacity:1"
     d="M 30,26.5 24,31 v -3 h -5 v -3 h 5 v -3 z"
     id="path839"
     inkscape:connector-curvature="0" />
  <path
     sodipodi:nodetypes="cccccccc"
     id="path841"
     d="M 30,26.5 24,31 v -3 h -5 v -3 h 5 v -3 z"
     style="fill:#ffffff;fill-opacity:1;stroke:none;stroke-width:1px;stroke-linecap:butt;stroke-linejoin:miter;stroke-opacity:1"
     inkscape:connector-curvature="0" />
</svg>
